<?xml version="1.0" encoding="UTF-8"?>
<map version="1.10" tiledversion="1.12.2" orientation="orthogonal" renderorder="right-down" width="30" height="20" tilewidth="16" tileheight="16" infinite="0" nextlayerid="16" nextobjectid="17">
 <editorsettings>
  <export target="mymap.csv" format="csv"/>
 </editorsettings>
 <tileset firstgid="1" source="grass.tsx"/>
 <tileset firstgid="78" source="water.tsx"/>
 <tileset firstgid="82" source="fences.tsx"/>
 <tileset firstgid="98" source="Wooden_House.tsx"/>
 <tileset firstgid="133" source="Hills.tsx"/>
 <layer id="3" name="water" width="30" height="20">
  <data encoding="csv">
79,78,78,81,79,81,80,80,78,81,79,80,80,78,81,80,78,78,78,81,80,80,78,80,81,79,81,79,80,79,
81,78,79,79,78,78,78,81,81,80,81,78,80,81,80,78,81,78,79,81,81,80,81,78,79,78,78,78,79,78,
79,80,78,78,81,81,80,81,81,80,81,79,81,79,78,78,78,79,81,81,79,78,79,78,81,81,78,81,78,78,
79,80,80,79,81,78,78,80,78,81,79,78,81,78,78,78,79,78,80,81,78,78,80,80,80,81,81,78,78,81,
80,80,81,81,79,80,81,79,79,78,80,78,81,78,79,81,80,79,80,79,79,80,78,81,81,78,81,81,78,79,
81,78,78,80,78,78,78,78,80,78,78,78,79,78,81,78,78,78,80,80,80,80,79,78,81,80,79,79,79,78,
79,80,80,78,79,81,79,78,78,80,80,78,79,78,81,78,79,81,80,78,79,79,80,78,78,78,79,79,81,79,
81,81,78,79,80,78,79,80,81,78,79,80,81,78,78,79,80,80,81,79,78,78,80,78,79,78,79,80,78,79,
80,81,80,80,78,79,80,79,79,78,79,78,79,81,81,80,81,80,79,79,78,80,80,78,79,79,78,79,79,81,
80,79,79,79,81,79,79,78,79,78,80,81,81,80,78,78,81,80,79,79,80,78,79,79,81,79,80,80,80,81,
79,78,78,78,80,80,80,80,80,80,81,79,79,80,79,81,80,78,78,78,79,78,80,79,79,79,80,80,80,81,
79,80,78,81,80,80,80,79,80,79,78,80,81,78,79,81,78,79,79,78,79,79,80,80,80,80,78,80,80,80,
78,81,78,81,79,81,79,79,81,80,80,80,80,78,78,80,81,78,78,79,79,81,80,78,79,80,81,78,80,81,
81,79,81,78,79,78,81,80,80,80,80,79,78,78,78,78,81,81,79,80,78,78,80,79,79,78,79,81,78,79,
79,80,81,79,80,80,78,80,80,81,80,78,78,78,80,78,81,80,78,79,78,78,79,78,80,81,79,81,80,80,
78,80,79,81,78,78,78,81,79,80,81,78,78,78,81,79,81,81,81,79,79,78,81,81,79,79,79,78,80,79,
81,78,79,81,81,79,78,81,78,81,78,78,79,80,81,78,79,79,80,79,78,78,79,80,81,78,80,81,78,81,
80,78,79,81,79,81,79,81,78,81,81,80,78,80,81,78,79,81,79,79,79,81,79,78,81,79,81,78,79,81,
78,81,81,78,81,78,78,80,80,80,81,81,81,79,79,81,81,79,80,80,78,78,79,80,81,81,81,80,79,81,
80,80,78,79,78,79,81,78,79,78,81,80,79,79,81,80,79,79,81,80,81,78,81,80,80,78,79,80,78,79
</data>
 </layer>
 <layer id="7" name="grass" width="30" height="20">
  <data encoding="csv">
71,72,13,13,13,61,13,57,71,72,56,61,71,58,57,57,58,72,59,72,71,69,59,68,71,67,57,60,58,68,
68,58,61,13,13,67,56,71,69,71,59,58,61,61,56,72,71,60,56,60,61,70,69,56,72,60,59,57,69,71,
60,58,59,13,13,57,68,60,61,69,57,13,61,60,59,60,13,59,67,72,57,56,61,57,69,68,67,68,71,60,
56,57,13,59,68,13,13,69,70,57,68,72,70,57,67,59,67,59,61,60,56,58,56,67,72,56,59,72,61,72,
59,13,70,58,60,59,61,59,13,70,67,58,60,58,59,70,58,57,58,72,67,61,72,67,67,13,57,61,69,57,
57,59,68,58,68,71,57,58,57,59,70,60,56,67,57,56,68,67,60,59,71,68,59,58,57,13,13,60,57,68,
57,60,13,72,61,13,58,68,70,69,13,61,71,59,60,70,58,71,60,13,56,58,71,56,56,57,61,69,60,71,
67,72,71,59,71,13,67,68,71,59,67,59,61,67,13,68,70,56,69,13,70,57,67,67,59,60,57,13,58,70,
72,67,61,71,13,60,72,71,61,72,61,58,68,70,56,60,13,13,60,57,60,72,56,60,67,68,59,59,70,67,
59,61,57,57,60,72,70,60,57,61,61,58,71,58,61,70,56,13,69,57,60,59,68,68,61,67,56,57,56,57,
67,61,72,71,68,57,68,72,56,57,57,67,70,71,67,68,70,70,60,70,60,60,60,72,57,56,70,13,58,61,
67,56,72,57,59,69,60,68,13,59,57,13,13,13,13,13,13,13,13,13,13,13,13,72,70,57,57,68,59,70,
72,67,72,67,57,72,57,56,72,56,13,17,24,24,24,24,24,24,24,24,24,24,18,13,56,67,13,67,69,68,
68,58,68,59,57,72,69,13,13,17,24,25,0,0,0,0,0,0,0,0,0,0,23,18,13,58,58,69,61,67,
70,67,13,60,59,57,67,67,13,14,0,0,0,0,0,0,0,0,0,0,0,0,0,12,13,69,71,57,69,61,
13,57,70,72,13,60,13,58,13,14,0,0,0,0,0,0,0,0,0,0,0,0,0,12,13,67,13,59,68,57,
69,61,60,60,68,70,56,13,13,14,0,0,0,0,0,0,0,0,0,0,0,0,0,12,13,67,13,68,59,72,
71,60,59,13,60,58,67,61,13,14,0,0,0,0,0,0,0,0,0,0,0,0,0,12,13,58,69,57,13,58,
72,71,59,61,68,58,60,57,13,14,0,0,0,0,0,0,0,0,0,0,0,0,0,12,13,13,70,61,72,70,
56,68,56,68,71,59,59,61,13,14,0,0,0,0,0,0,0,0,0,0,0,0,0,12,13,58,61,59,59,68
</data>
 </layer>
 <layer id="4" name="fences" width="30" height="20">
  <data encoding="csv">
0,0,0,0,0,0,0,0,0,0,0,0,0,0,0,0,0,0,0,0,0,0,0,0,0,0,0,0,0,0,
0,0,0,0,0,0,0,0,0,0,0,0,0,0,0,0,0,0,0,0,0,0,0,0,0,0,0,0,0,0,
0,0,0,0,0,0,0,0,0,0,0,0,0,0,0,0,0,0,0,0,0,0,0,0,0,0,0,0,0,0,
0,0,0,0,0,0,0,0,0,0,0,0,0,0,0,0,0,0,0,0,0,0,0,0,0,0,0,0,0,0,
0,0,0,0,0,0,0,0,0,0,0,0,0,0,0,0,0,0,0,0,0,0,0,0,0,0,0,0,0,0,
0,0,0,0,0,0,0,0,0,0,0,0,0,0,0,0,0,0,0,0,0,0,0,0,0,0,0,0,0,0,
0,0,0,0,0,0,0,0,0,0,0,0,0,0,0,0,0,0,0,0,0,0,0,0,0,0,0,0,0,0,
0,0,0,0,0,0,0,0,0,0,0,0,0,0,0,0,0,0,0,0,0,0,0,0,0,0,0,0,0,0,
0,0,0,0,0,0,0,0,0,0,0,0,0,0,0,0,0,0,0,0,0,0,0,0,0,0,0,0,0,0,
0,0,0,0,0,0,0,0,0,0,0,0,0,0,0,0,0,0,0,0,0,0,0,0,0,0,0,0,0,0,
0,0,0,0,0,0,0,0,0,0,0,0,0,0,0,0,0,0,0,0,0,0,0,0,0,0,0,0,0,0,
0,0,0,0,0,0,0,0,0,0,0,0,0,0,0,0,0,0,95,97,0,94,0,0,0,0,0,0,0,0,
0,0,0,0,0,0,0,0,0,0,0,0,0,0,0,0,0,0,0,0,0,0,0,95,85,0,0,0,0,0,
0,0,0,0,0,0,0,0,0,0,0,0,0,0,0,0,0,0,0,0,0,0,0,0,91,85,0,0,0,0,
0,0,0,0,0,0,0,0,0,0,0,0,0,0,0,0,0,0,0,0,0,0,0,0,0,86,0,0,0,0,
0,0,0,0,0,0,0,0,0,0,0,0,0,0,0,0,0,0,0,0,0,0,0,0,0,90,0,0,0,0,
0,0,0,0,0,0,0,0,83,97,0,0,0,0,0,0,0,0,0,0,0,0,0,0,0,0,0,0,0,0,
0,0,0,0,0,0,0,0,86,0,0,0,0,0,0,0,0,0,0,0,0,0,0,0,0,0,0,0,0,0,
0,0,0,0,0,0,0,0,86,0,0,0,0,0,0,0,0,0,0,0,0,0,0,0,0,0,0,0,0,0,
0,0,0,0,0,0,0,0,90,0,0,0,0,0,0,0,0,0,0,0,0,0,0,0,0,0,0,0,0,0
</data>
 </layer>
 <layer id="15" name="farmable" width="30" height="20">
  <data encoding="csv">
0,0,0,0,0,0,0,0,0,0,0,0,0,0,0,0,0,0,0,0,0,0,0,0,0,0,0,0,0,0,
0,0,0,0,0,0,0,0,0,0,0,0,0,0,0,0,0,0,0,0,0,0,0,0,0,0,0,0,0,0,
0,0,0,0,0,0,0,0,0,0,0,0,0,0,0,0,0,0,0,0,0,0,0,0,0,0,0,0,0,0,
0,0,0,0,0,0,0,0,0,0,0,0,0,0,0,0,0,0,0,0,0,0,0,0,0,0,0,0,0,0,
0,0,0,0,0,0,0,0,0,0,1,1,1,1,1,1,1,1,1,1,1,1,0,0,0,0,0,0,0,0,
0,0,0,0,0,0,0,0,0,0,1,1,1,1,1,1,1,1,1,1,1,1,1,1,0,0,0,0,0,0,
0,0,0,0,0,0,0,0,0,1,1,1,1,1,1,1,1,1,1,1,1,1,1,1,0,0,0,0,0,0,
0,0,0,0,0,0,0,1,1,1,1,1,1,1,1,1,1,1,1,1,1,1,1,1,1,0,0,0,0,0,
0,0,1,1,1,1,1,1,1,1,1,1,1,1,1,1,1,1,1,1,1,1,1,1,1,0,0,0,0,0,
0,0,1,1,1,1,1,1,1,1,1,1,1,1,1,1,1,1,1,1,1,1,1,1,1,1,0,0,0,0,
0,0,0,1,1,1,1,1,1,1,1,1,1,1,1,1,1,1,0,0,0,0,1,1,1,1,1,1,1,1,
0,0,0,1,1,1,1,1,1,0,0,0,0,0,0,0,0,0,0,0,0,0,0,0,0,1,1,1,1,1,
0,0,0,1,1,1,1,1,1,0,0,0,0,0,0,0,0,0,0,0,0,0,0,0,0,0,0,1,1,1,
0,0,0,1,1,1,1,0,0,0,0,0,0,0,0,0,0,0,0,0,0,0,0,0,0,0,0,0,1,1,
0,0,0,1,1,1,1,0,0,0,0,0,0,0,0,0,0,0,0,0,0,0,0,0,0,0,0,0,0,0,
0,0,0,0,1,1,0,0,0,0,0,0,0,0,0,0,0,0,0,0,0,0,0,0,0,0,0,0,0,0,
0,0,0,0,0,0,0,0,0,0,0,0,0,0,0,0,0,0,0,0,0,0,0,0,0,0,0,0,0,0,
0,0,0,0,0,0,0,0,0,0,0,0,0,0,0,0,0,0,0,0,0,0,0,0,0,0,0,0,0,0,
0,0,0,0,0,0,0,0,0,0,0,0,0,0,0,0,0,0,0,0,0,0,0,0,0,0,0,0,0,0,
0,0,0,0,0,0,0,0,0,0,0,0,0,0,0,0,0,0,0,0,0,0,0,0,0,0,0,0,0,0
</data>
 </layer>
 <layer id="11" name="floor" width="30" height="20">
  <data encoding="csv">
0,0,0,0,0,0,0,0,0,0,0,0,0,0,0,0,0,0,0,0,0,0,0,0,0,0,0,0,0,0,
0,113,113,113,113,113,113,113,0,0,0,0,0,0,0,0,0,0,0,0,0,0,0,0,0,0,0,0,0,0,
0,113,113,113,113,113,113,113,0,0,0,0,0,0,0,0,0,0,0,0,0,0,0,0,0,0,0,0,0,0,
0,113,113,113,113,113,113,113,0,0,0,0,0,0,0,0,0,0,0,0,0,0,0,0,0,0,0,0,0,0,
0,113,113,113,113,113,113,113,0,0,0,0,0,0,0,0,0,0,0,0,0,0,0,0,0,0,0,0,0,0,
0,113,113,113,113,113,113,113,0,0,0,0,0,0,0,0,0,0,0,0,0,0,0,0,0,0,0,0,0,0,
0,0,0,0,0,0,0,0,0,0,0,0,0,0,0,0,0,0,0,0,0,0,0,0,0,0,0,0,0,0,
0,0,0,0,0,0,0,0,0,0,0,0,0,0,0,0,0,0,0,0,0,0,0,0,0,0,0,0,0,0,
0,0,0,0,0,0,0,0,0,0,0,0,0,0,0,0,0,0,0,0,0,0,0,0,0,0,0,0,0,0,
0,0,0,0,0,0,0,0,0,0,0,0,0,0,0,0,0,0,0,0,0,0,0,0,0,0,0,0,0,0,
0,0,0,0,0,0,0,0,0,0,0,0,0,0,0,0,0,0,0,0,0,0,0,0,0,0,0,0,0,0,
0,0,0,0,0,0,0,0,0,0,0,0,0,0,0,0,0,0,0,0,0,0,0,0,0,0,0,0,0,0,
0,0,0,0,0,0,0,0,0,0,0,0,0,0,0,0,0,0,0,0,0,0,0,0,0,0,0,0,0,0,
0,0,0,0,0,0,0,0,0,0,0,0,0,0,0,0,0,0,0,0,0,0,0,0,0,0,0,0,0,0,
0,0,0,0,0,0,0,0,0,0,0,0,0,0,0,0,0,0,0,0,0,0,0,0,0,0,0,0,0,0,
0,0,0,0,0,0,0,0,0,0,0,0,0,0,0,0,0,0,0,0,0,0,0,0,0,0,0,0,0,0,
0,0,0,0,0,0,0,0,0,0,0,0,0,0,0,0,0,0,0,0,0,0,0,0,0,0,0,0,0,0,
0,0,0,0,0,0,0,0,0,0,0,0,0,0,0,0,0,0,0,0,0,0,0,0,0,0,0,0,0,0,
0,0,0,0,0,0,0,0,0,0,0,0,0,0,0,0,0,0,0,0,0,0,0,0,0,0,0,0,0,0,
0,0,0,0,0,0,0,0,0,0,0,0,0,0,0,0,0,0,0,0,0,0,0,0,0,0,0,0,0,0
</data>
 </layer>
 <layer id="14" name="hills" width="30" height="20">
  <data encoding="csv">
156,0,0,0,0,0,0,0,155,156,156,150,149,157,0,0,0,0,0,155,150,145,145,145,145,145,145,144,145,145,
0,0,0,0,0,0,0,0,0,0,0,155,157,0,0,0,0,0,0,0,155,156,156,156,156,156,150,144,145,145,
0,0,0,0,0,0,0,0,0,0,0,0,0,0,0,0,0,0,0,0,0,0,0,0,0,0,144,144,145,145,
0,0,0,0,0,0,0,0,0,0,0,0,0,0,0,0,0,0,0,0,0,0,0,0,0,0,144,155,150,145,
0,0,0,0,0,0,0,0,0,0,0,0,0,0,0,0,0,0,0,0,0,0,0,0,0,0,144,145,144,145,
0,0,0,0,0,0,0,0,0,0,0,0,0,0,0,0,0,0,0,0,0,0,0,0,0,0,155,150,155,150,
0,0,0,0,0,0,0,0,0,0,0,0,0,0,0,0,0,0,0,0,0,0,0,0,0,0,0,144,145,155,
0,0,0,0,0,0,0,0,0,0,0,0,0,0,0,0,0,0,0,0,0,0,0,0,0,0,0,155,156,156,
0,0,0,0,0,0,0,0,0,0,0,0,0,0,0,0,0,0,0,0,0,0,0,0,0,0,0,0,0,0,
135,0,0,0,0,0,0,0,0,0,0,0,0,0,0,0,0,0,0,0,0,0,0,0,0,0,0,0,0,0,
160,135,0,0,0,0,0,0,0,0,0,0,0,0,0,0,0,0,0,0,0,0,0,0,0,0,0,0,0,0,
145,146,0,0,0,0,0,0,0,0,0,0,0,0,0,0,0,0,0,0,0,0,0,0,0,0,0,0,0,0,
145,146,0,0,0,0,0,0,0,0,0,0,0,0,0,0,0,0,0,0,0,0,0,0,0,0,0,0,0,0,
145,146,0,0,0,0,0,0,0,0,0,0,0,0,0,0,0,0,0,0,0,0,0,0,0,0,0,0,0,0,
145,146,0,0,0,0,0,0,0,0,0,0,0,0,0,0,0,0,0,0,0,0,0,0,0,0,0,0,0,0,
145,146,0,0,0,0,0,0,0,0,0,0,0,0,0,0,0,0,0,0,0,0,0,0,0,0,0,0,0,0,
149,157,0,0,0,0,0,0,0,0,0,0,0,0,0,0,0,0,0,0,0,0,0,0,0,0,0,0,0,133,
146,146,0,0,0,0,133,135,0,0,0,0,0,0,0,0,0,0,0,0,0,0,0,0,0,0,0,0,0,144,
157,146,0,0,0,133,161,146,0,0,0,0,0,0,0,0,0,0,0,0,0,0,0,0,0,0,0,0,133,161,
149,157,0,0,0,144,136,146,0,0,0,0,0,0,0,0,0,0,0,0,0,0,0,0,0,0,0,0,155,156
</data>
 </layer>
 <layer id="12" name="Tile Layer 6" width="30" height="20">
  <data encoding="csv">
105,106,99,106,106,106,99,106,107,0,0,0,0,0,0,0,0,0,0,0,0,0,0,0,0,0,0,0,0,0,
112,0,0,0,0,0,0,0,114,0,0,0,0,0,0,0,0,0,0,0,0,0,0,0,0,0,0,0,0,0,
112,0,0,0,0,0,0,0,114,0,0,0,0,0,0,0,0,0,0,0,0,0,0,0,0,0,0,0,0,0,
112,0,0,0,0,0,0,0,114,0,0,0,0,0,0,0,0,0,0,0,0,0,0,0,0,0,0,0,0,0,
112,0,0,0,0,0,0,0,114,0,0,0,0,0,0,0,0,0,0,0,0,0,0,0,0,0,0,0,0,0,
119,120,99,120,101,120,99,120,121,0,0,0,0,0,0,0,0,0,0,0,0,0,0,0,0,0,0,0,0,0,
126,126,0,0,0,0,0,0,0,0,0,0,0,0,0,0,0,0,0,0,0,0,0,0,0,0,0,0,0,0,
0,0,0,0,0,0,0,0,0,0,0,0,0,0,0,0,0,0,0,0,0,0,0,0,0,0,0,0,0,0,
0,0,0,0,0,0,0,0,0,0,0,0,0,0,0,0,0,0,0,0,0,0,0,0,0,0,0,0,0,0,
0,0,0,0,0,0,0,0,0,0,0,0,0,0,0,0,0,0,0,0,0,0,0,0,0,0,0,0,0,0,
0,0,0,0,0,0,0,0,0,0,0,0,0,0,0,0,0,0,0,0,0,0,0,0,0,0,0,0,0,0,
0,0,0,0,0,0,0,0,0,0,0,0,0,0,0,0,0,0,0,0,0,0,0,0,0,0,0,0,0,0,
0,0,0,0,0,0,0,0,0,0,0,0,0,0,0,0,0,0,0,0,0,0,0,0,0,0,0,0,0,0,
0,0,0,0,0,0,0,0,0,0,0,0,0,0,0,0,0,0,0,0,0,0,0,0,0,0,0,0,0,0,
0,0,0,0,0,0,0,0,0,0,0,0,0,0,0,0,0,0,0,0,0,0,0,0,0,0,0,0,0,0,
0,0,0,0,0,0,0,0,0,0,0,0,0,0,0,0,0,0,0,0,0,0,0,0,0,0,0,0,0,0,
0,0,0,0,0,0,0,0,0,0,0,0,0,0,0,0,0,0,0,0,0,0,0,0,0,0,0,0,0,0,
0,0,0,0,0,0,0,0,0,0,0,0,0,0,0,0,0,0,0,0,0,0,0,0,0,0,0,0,0,0,
0,0,0,0,0,0,0,0,0,0,0,0,0,0,0,0,0,0,0,0,0,0,0,0,0,0,0,0,0,0,
0,0,0,0,0,0,0,0,0,0,0,0,0,0,0,0,0,0,0,0,0,0,0,0,0,0,0,0,0,0
</data>
 </layer>
 <layer id="13" name="Tile Layer 7" width="30" height="20">
  <data encoding="csv">
109,110,110,110,110,110,110,110,111,0,0,0,0,0,0,0,0,0,0,0,0,0,0,0,0,0,0,0,0,0,
109,110,110,110,110,110,110,110,111,0,0,0,0,0,0,0,0,0,0,0,0,0,0,0,0,0,0,0,0,0,
116,117,117,117,117,117,117,117,118,0,0,0,0,0,0,0,0,0,0,0,0,0,0,0,0,0,0,0,0,0,
123,124,124,124,124,124,124,124,125,0,0,0,0,0,0,0,0,0,0,0,0,0,0,0,0,0,0,0,0,0,
123,124,124,124,124,124,124,124,125,0,0,0,0,0,0,0,0,0,0,0,0,0,0,0,0,0,0,0,0,0,
130,131,131,131,131,131,131,131,132,0,0,0,0,0,0,0,0,0,0,0,0,0,0,0,0,0,0,0,0,0,
0,0,0,0,0,0,0,0,0,0,0,0,0,0,0,0,0,0,0,0,0,0,0,0,0,0,0,0,0,0,
0,0,0,0,0,0,0,0,0,0,0,0,0,0,0,0,0,0,0,0,0,0,0,0,0,0,0,0,0,0,
0,0,0,0,0,0,0,0,0,0,0,0,0,0,0,0,0,0,0,0,0,0,0,0,0,0,0,0,0,0,
0,0,0,0,0,0,0,0,0,0,0,0,0,0,0,0,0,0,0,0,0,0,0,0,0,0,0,0,0,0,
0,0,0,0,0,0,0,0,0,0,0,0,0,0,0,0,0,0,0,0,0,0,0,0,0,0,0,0,0,0,
0,0,0,0,0,0,0,0,0,0,0,0,0,0,0,0,0,0,0,0,0,0,0,0,0,0,0,0,0,0,
0,0,0,0,0,0,0,0,0,0,0,0,0,0,0,0,0,0,0,0,0,0,0,0,0,0,0,0,0,0,
0,0,0,0,0,0,0,0,0,0,0,0,0,0,0,0,0,0,0,0,0,0,0,0,0,0,0,0,0,0,
0,0,0,0,0,0,0,0,0,0,0,0,0,0,0,0,0,0,0,0,0,0,0,0,0,0,0,0,0,0,
0,0,0,0,0,0,0,0,0,0,0,0,0,0,0,0,0,0,0,0,0,0,0,0,0,0,0,0,0,0,
0,0,0,0,0,0,0,0,0,0,0,0,0,0,0,0,0,0,0,0,0,0,0,0,0,0,0,0,0,0,
0,0,0,0,0,0,0,0,0,0,0,0,0,0,0,0,0,0,0,0,0,0,0,0,0,0,0,0,0,0,
0,0,0,0,0,0,0,0,0,0,0,0,0,0,0,0,0,0,0,0,0,0,0,0,0,0,0,0,0,0,
0,0,0,0,0,0,0,0,0,0,0,0,0,0,0,0,0,0,0,0,0,0,0,0,0,0,0,0,0,0
</data>
 </layer>
 <objectgroup id="8" name="cols">
  <object id="7" x="404.727" y="208.818" width="6.27273" height="43.2727"/>
  <object id="8" x="388.818" y="208.909" width="15.8182" height="11.1818"/>
  <object id="9" x="388.818" y="192.727" width="6.09091" height="16.2727"/>
  <object id="11" x="372.909" y="192.727" width="15.8182" height="11.4545"/>
  <object id="12" x="340.818" y="176.909" width="6.09091" height="11.0909"/>
  <object id="13" x="292.727" y="176.909" width="22.2727" height="11.1818"/>
  <object id="14" x="132.909" y="256.909" width="22.1818" height="11.1818"/>
  <object id="15" x="132.75" y="268.125" width="6.5" height="48"/>
 </objectgroup>
</map>
